Dominus_Dark_Funeral/scalable/apps/falkon.svg

<svg xmlns="http://www.w3.org/2000/svg" xmlns:xlink="http://www.w3.org/1999/xlink" width="48" height="48" viewBox="0 0 12.7 12.7"><defs><linearGradient id="c"><stop offset="0" stop-color="#090d11"/><stop offset=".5" stop-color="#333"/><stop offset="1" stop-color="#666"/></linearGradient><linearGradient id="d"><stop offset="0" stop-color="#7c6f91"/><stop offset=".28" stop-color="#b380ff"/><stop offset=".39" stop-color="#b7b7c8"/><stop offset=".62" stop-color="#aa87de"/><stop offset="1" stop-color="#2d1650"/></linearGradient><linearGradient id="b"><stop offset="0"/><stop offset="1" stop-opacity="0"/></linearGradient><linearGradient id="a"><stop offset="0" stop-color="#999"/><stop offset="1" stop-color="#fff"/></linearGradient><linearGradient xlink:href="#c" id="f" x1="6.78" y1="-1.76" x2="6.32" y2="11.51" gradientUnits="userSpaceOnUse"/><linearGradient xlink:href="#d" id="e" gradientUnits="userSpaceOnUse" x1="1.06" y1=".57" x2="10.26" y2="12.27"/></defs><path d="M2.39 8.29c.22.4.5.94.62 1.13.54.85 1.13 1.61 1.65 2.16.68.7 1.21 1.03 1.69 1.03s1.01-.33 1.69-1.03a15.2 15.2 0 0 0 1.65-2.15c.05-.08.18-.35.26-.47l-.02.01.44-1.22 1.13-2.58v-.65l-.34-1.73-1.78-1.64L5.44.67l-2.65.7-1.35 1.66.12 2.91.83 2.35z" fill="url(#e)"/><path d="M6.82.1a6.75 6.75 0 0 0-.47 0c-.77 0-1.46.07-2.08.21a5.86 5.86 0 0 0-1.61.65 3.67 3.67 0 0 0-.3.22 3.67 3.67 0 0 0-.27.24 3.67 3.67 0 0 0-.25.27 3.67 3.67 0 0 0-.22.3 3.67 3.67 0 0 0-.19.3 3.67 3.67 0 0 0-.16.34 3.67 3.67 0 0 0-.12.34 3.67 3.67 0 0 0-.09.36 3.67 3.67 0 0 0-.05.36 3.67 3.67 0 0 0-.01.37 3.67 3.67 0 0 0 0 .16c0 .48.1 1 .25 1.52s.36 1.04.58 1.52c.2.46.36.67.56 1.03l-.01-.1c0-.64.16-1.45.57-2.4l.15-.32.03-.02a7.86 7.86 0 0 1 4.19-1.53s-4.45.2-4.86 1.44c.24-1.44.98-3.48 2.73-3.18h.01c.2-.04.36-.17.39-.35a6.76 6.76 0 0 0-2.13-.04h-.01c.87-.36 1.64-.5 2.31-.5C8.08 1.32 9.22 3 9.41 3.1c1.12.24 1.82 1 1.92 1.73-.57-.02-1.1 0-1.6.06-1.05.3-1.37.8-1.39 1.37-.03 1.1 1.27 2.41 1.6 2.72v-.01c.27-.43.58-.94.93-1.7.22-.48.42-1 .57-1.52a4.63 4.63 0 0 0 .14-2.52 3.73 3.73 0 0 0-.47-1.13c-.11-.18-.22-.36-.36-.51-.2-.23-.44-.43-.71-.61a6.75 6.75 0 0 0-.6-.3A6.75 6.75 0 0 0 8.8.43a6.75 6.75 0 0 0-.65-.18 6.75 6.75 0 0 0-.67-.11 6.75 6.75 0 0 0-.67-.05zm1.02 2.56c-.17 0-.3.06-.3.06s.13.84 1.08.74c-.07-.56-.34-.75-.6-.8a.86.86 0 0 0-.18 0zM9.12 4.8c-1.36.02-4.33.5-6.54 3.84.14.24.34.65.43.78.04.07.09.1.13.17.54-1.2 2.43-4.58 6.72-4.75 0 0-.28-.04-.74-.04z" color="#090d11" fill="url(#f)"/><path d="M6.35.1C4.81.1 3.57.38 2.66.96A3.67 3.67 0 0 0 1 4.22c0 1.91 1.54 4.47 2.01 5.2.54.85 1.13 1.61 1.65 2.16.68.7 1.21 1.03 1.69 1.03s1.01-.33 1.69-1.03a15.2 15.2 0 0 0 1.65-2.15c.47-.74 2-3.3 2-5.21 0-1.42-.57-2.54-1.65-3.25A6.75 6.75 0 0 0 6.35.1zm0 .03C6.91.15 7.44.2 7.9.31a5.82 5.82 0 0 1 1.6.66 3.65 3.65 0 0 1 1.24 1.36c.14.27.25.57.32.88a4.61 4.61 0 0 1-.14 2.53c-.15.52-.36 1.04-.58 1.52-.44.97-.95 1.8-1.18 2.17a15.2 15.2 0 0 1-1.65 2.15 4.9 4.9 0 0 1-.92.78.96.96 0 0 1-.24.1.96.96 0 0 1-.24-.1 4.76 4.76 0 0 1-.92-.78 14.41 14.41 0 0 1-1.65-2.15 19.2 19.2 0 0 1-1.18-2.17c-.22-.48-.43-1-.58-1.52a4.6 4.6 0 0 1-.14-2.52 3.73 3.73 0 0 1 .84-1.64 3.65 3.65 0 0 1 1.45-1A6.83 6.83 0 0 1 6.35.13z" opacity=".2"/></svg>

<?xml version="1.0" encoding="UTF-8" standalone="no"?>
<svg
   xmlns:dc="http://purl.org/dc/elements/1.1/"
   xmlns:cc="http://creativecommons.org/ns#"
   xmlns:rdf="http://www.w3.org/1999/02/22-rdf-syntax-ns#"
   xmlns:svg="http://www.w3.org/2000/svg"
   xmlns="http://www.w3.org/2000/svg"
   xmlns:xlink="http://www.w3.org/1999/xlink"
   xmlns:sodipodi="http://sodipodi.sourceforge.net/DTD/sodipodi-0.dtd"
   xmlns:inkscape="http://www.inkscape.org/namespaces/inkscape"
   width="48"
   height="48"
   viewBox="0 0 12.7 12.7"
   version="1.1"
   id="svg40"
   sodipodi:docname="falkon.svg"
   inkscape:version="0.92.4 (5da689c313, 2019-01-14)">
  <metadata
     id="metadata44">
    <rdf:RDF>
      <cc:Work
         rdf:about="">
        <dc:format>image/svg+xml</dc:format>
        <dc:type
           rdf:resource="http://purl.org/dc/dcmitype/StillImage" />
        <dc:title></dc:title>
      </cc:Work>
    </rdf:RDF>
  </metadata>
  <sodipodi:namedview
     pagecolor="#ffffff"
     bordercolor="#666666"
     borderopacity="1"
     objecttolerance="10"
     gridtolerance="10"
     guidetolerance="10"
     inkscape:pageopacity="0"
     inkscape:pageshadow="2"
     inkscape:window-width="1112"
     inkscape:window-height="480"
     id="namedview42"
     showgrid="false"
     inkscape:zoom="4.9166667"
     inkscape:cx="2.1355932"
     inkscape:cy="24"
     inkscape:window-x="0"
     inkscape:window-y="25"
     inkscape:window-maximized="0"
     inkscape:current-layer="svg40" />
  <defs
     id="defs32">
    <linearGradient
       id="c">
      <stop
         offset="0"
         stop-color="#090d11"
         id="stop2" />
      <stop
         offset=".5"
         stop-color="#333"
         id="stop4" />
      <stop
         offset="1"
         stop-color="#666"
         id="stop6" />
    </linearGradient>
    <linearGradient
       id="d">
      <stop
         offset="0"
         stop-color="#7c6f91"
         id="stop9" />
      <stop
         offset=".28"
         stop-color="#b380ff"
         id="stop11" />
      <stop
         offset=".39"
         stop-color="#b7b7c8"
         id="stop13" />
      <stop
         offset=".62"
         stop-color="#aa87de"
         id="stop15" />
      <stop
         offset="1"
         stop-color="#2d1650"
         id="stop17" />
    </linearGradient>
    <linearGradient
       id="b">
      <stop
         offset="0"
         id="stop20" />
      <stop
         offset="1"
         stop-opacity="0"
         id="stop22" />
    </linearGradient>
    <linearGradient
       id="a">
      <stop
         offset="0"
         stop-color="#999"
         id="stop25" />
      <stop
         offset="1"
         stop-color="#fff"
         id="stop27" />
    </linearGradient>
    <linearGradient
       xlink:href="#c"
       id="f"
       x1="6.78"
       y1="-1.76"
       x2="6.32"
       y2="11.51"
       gradientUnits="userSpaceOnUse" />
    <linearGradient
       xlink:href="#d"
       id="e"
       gradientUnits="userSpaceOnUse"
       x1="1.06"
       y1=".57"
       x2="10.26"
       y2="12.27" />
  </defs>
  <path
     d="m 2.39,8.29 c 0.22,0.4 0.5,0.94 0.62,1.13 0.54,0.85 1.13,1.61 1.65,2.16 0.68,0.7 1.21,1.03 1.69,1.03 0.48,0 1.01,-0.33 1.69,-1.03 A 15.2,15.2 0 0 0 9.69,9.43 C 9.74,9.35 9.87,9.08 9.95,8.96 L 9.93,8.97 10.37,7.75 11.5,5.17 V 4.52 L 11.16,2.79 9.38,1.15 5.44,0.67 2.79,1.37 1.44,3.03 1.56,5.94 Z"
     id="path34"
     style="fill:url(#e)"
     inkscape:connector-curvature="0" />
  <path
     d="m 6.82,0.1 a 6.75,6.75 0 0 0 -0.47,0 C 5.58,0.1 4.89,0.17 4.27,0.31 A 5.86,5.86 0 0 0 2.66,0.96 3.67,3.67 0 0 0 2.36,1.18 3.67,3.67 0 0 0 2.09,1.42 3.67,3.67 0 0 0 1.84,1.69 3.67,3.67 0 0 0 1.62,1.99 3.67,3.67 0 0 0 1.43,2.29 3.67,3.67 0 0 0 1.27,2.63 3.67,3.67 0 0 0 1.15,2.97 3.67,3.67 0 0 0 1.06,3.33 3.67,3.67 0 0 0 1.01,3.69 3.67,3.67 0 0 0 1,4.06 3.67,3.67 0 0 0 1,4.22 c 0,0.48 0.1,1 0.25,1.52 0.15,0.52 0.36,1.04 0.58,1.52 0.2,0.46 0.36,0.67 0.56,1.03 L 2.38,8.19 c 0,-0.64 0.16,-1.45 0.57,-2.4 L 3.1,5.47 3.13,5.45 A 7.86,7.86 0 0 1 7.32,3.92 c 0,0 -4.45,0.2 -4.86,1.44 C 2.7,3.92 3.44,1.88 5.19,2.18 H 5.2 C 5.4,2.14 5.56,2.01 5.59,1.83 A 6.76,6.76 0 0 0 3.46,1.79 H 3.45 C 4.32,1.43 5.09,1.29 5.76,1.29 8.08,1.32 9.22,3 9.41,3.1 c 1.12,0.24 1.82,1 1.92,1.73 -0.57,-0.02 -1.1,0 -1.6,0.06 -1.05,0.3 -1.37,0.8 -1.39,1.37 -0.03,1.1 1.27,2.41 1.6,2.72 V 8.97 c 0.27,-0.43 0.58,-0.94 0.93,-1.7 0.22,-0.48 0.42,-1 0.57,-1.52 A 4.63,4.63 0 0 0 11.58,3.23 3.73,3.73 0 0 0 11.11,2.1 C 11,1.92 10.89,1.74 10.75,1.59 10.55,1.36 10.31,1.16 10.04,0.98 A 6.75,6.75 0 0 0 9.44,0.68 6.75,6.75 0 0 0 8.8,0.43 6.75,6.75 0 0 0 8.15,0.25 6.75,6.75 0 0 0 7.48,0.14 6.75,6.75 0 0 0 6.81,0.09 Z m 1.02,2.56 c -0.17,0 -0.3,0.06 -0.3,0.06 0,0 0.13,0.84 1.08,0.74 C 8.55,2.9 8.28,2.71 8.02,2.66 a 0.86,0.86 0 0 0 -0.18,0 z M 9.12,4.8 C 7.76,4.82 4.79,5.3 2.58,8.64 2.72,8.88 2.92,9.29 3.01,9.42 3.05,9.49 3.1,9.52 3.14,9.59 3.68,8.39 5.57,5.01 9.86,4.84 9.86,4.84 9.58,4.8 9.12,4.8 Z"
     id="path36"
     style="color:#090d11;fill:url(#f)"
     inkscape:connector-curvature="0" />
  <path
     d="M 6.35,0.1 C 4.81,0.1 3.57,0.38 2.66,0.96 A 3.67,3.67 0 0 0 1,4.22 c 0,1.91 1.54,4.47 2.01,5.2 0.54,0.85 1.13,1.61 1.65,2.16 0.68,0.7 1.21,1.03 1.69,1.03 0.48,0 1.01,-0.33 1.69,-1.03 A 15.2,15.2 0 0 0 9.69,9.43 c 0.47,-0.74 2,-3.3 2,-5.21 0,-1.42 -0.57,-2.54 -1.65,-3.25 A 6.75,6.75 0 0 0 6.35,0.1 Z m 0,0.03 C 6.91,0.15 7.44,0.2 7.9,0.31 a 5.82,5.82 0 0 1 1.6,0.66 3.65,3.65 0 0 1 1.24,1.36 c 0.14,0.27 0.25,0.57 0.32,0.88 A 4.61,4.61 0 0 1 10.92,5.74 C 10.77,6.26 10.56,6.78 10.34,7.26 9.9,8.23 9.39,9.06 9.16,9.43 A 15.2,15.2 0 0 1 7.51,11.58 4.9,4.9 0 0 1 6.59,12.36 0.96,0.96 0 0 1 6.35,12.46 0.96,0.96 0 0 1 6.11,12.36 4.76,4.76 0 0 1 5.19,11.58 14.41,14.41 0 0 1 3.54,9.43 19.2,19.2 0 0 1 2.36,7.26 C 2.14,6.78 1.93,6.26 1.78,5.74 A 4.6,4.6 0 0 1 1.64,3.22 3.73,3.73 0 0 1 2.48,1.58 3.65,3.65 0 0 1 3.93,0.58 6.83,6.83 0 0 1 6.35,0.13 Z"
     id="path38"
     inkscape:connector-curvature="0"
     style="opacity:0.2" />
</svg>
